lib/preview_tmp/nrk-logo-nrk-sport-on-light.svg

<svg width="95" height="24" viewBox="0 0 95 24" fill="none" xmlns="http://www.w3.org/2000/svg">
<path d="M0 18.6666V4.66792H4.59339V18.6666H0ZM10.8428 6.89589L13.4844 18.6666H8.45737L5.30307 4.66792H8.12254C8.76907 4.65953 9.39641 4.88744 9.88691 5.30877C10.3782 5.71242 10.7158 6.27279 10.8428 6.89589ZM14.1744 18.6666V4.66792H18.7678V18.6666H14.1744ZM22.2372 9.99143C21.7422 9.99625 21.2552 9.86675 20.828 9.61677C20.4064 9.37312 20.0563 9.02293 19.8127 8.60134C19.5624 8.17403 19.4329 7.68687 19.4378 7.19168C19.4321 6.69952 19.5618 6.21526 19.8127 5.79181C20.0589 5.3748 20.4086 5.02842 20.828 4.78625C21.2553 4.53657 21.7423 4.40708 22.2372 4.41159C22.7292 4.4063 23.2133 4.5359 23.6369 4.78625C24.0521 5.03054 24.3981 5.37663 24.6424 5.79181C24.893 6.21537 25.0226 6.69956 25.0172 7.19168C25.0218 7.68683 24.8923 8.17391 24.6424 8.60134C24.4007 9.02108 24.0542 9.37097 23.6369 9.61677C23.2133 9.86762 22.7289 9.99725 22.2366 9.99143H22.2372ZM25.7269 18.6666V4.66792H30.3207V18.6666H25.7269ZM36.136 12.3179C36.1489 12.3315 36.2475 12.4925 36.4317 12.801C36.6159 13.1094 36.8558 13.5038 37.1513 13.984C37.447 14.464 37.759 14.9733 38.0874 15.512C38.4157 16.0507 38.7247 16.5601 39.0143 17.0401C39.3028 17.52 39.6313 18.0622 40 18.6666H34.9531C34.6375 18.154 34.3515 17.6907 34.0952 17.2766C33.8389 16.8626 33.5665 16.4157 33.2778 15.9359C32.9884 15.4566 32.7024 14.9899 32.4196 14.536C32.1368 14.0821 31.8938 13.6845 31.6905 13.3432C31.4863 13.0017 31.3449 12.7716 31.2663 12.6531C31.0713 12.359 30.9559 12.0193 30.9315 11.6673C30.951 11.3294 31.0597 11.0028 31.2466 10.7206C31.3254 10.5892 31.47 10.3558 31.6803 10.0206C31.8906 9.68545 32.137 9.28787 32.4196 8.82782C32.7021 8.36777 32.9882 7.89785 33.2778 7.41808C33.5674 6.93832 33.8398 6.48809 34.0952 6.06747C34.3519 5.64729 34.6379 5.18066 34.9531 4.6676H40L36.0962 11.0361C35.9754 11.2251 35.9073 11.443 35.8991 11.6673C35.9121 11.9027 35.9942 12.129 36.1353 12.3179H36.136Z" fill="#0A2343"/>
<path d="M53.9268 12.1152C53.6396 11.8226 53.3063 11.5792 52.9402 11.3949C52.5564 11.2006 52.1571 11.0389 51.7464 10.9115C51.3254 10.7799 50.8913 10.668 50.444 10.5757C50.1016 10.497 49.7825 10.4181 49.487 10.3392C49.2154 10.2691 48.9511 10.1731 48.6977 10.0528C48.4799 9.94965 48.2775 9.81686 48.0962 9.65814C47.9254 9.50762 47.7933 9.31821 47.7111 9.10594C47.6203 8.85624 47.5769 8.5918 47.5832 8.32618C47.5788 8.05114 47.622 7.77743 47.7111 7.51716C47.7921 7.28761 47.9275 7.08108 48.1057 6.9153C48.2904 6.74619 48.5001 6.60656 48.7273 6.50127C48.9873 6.38276 49.2632 6.30296 49.5462 6.26445C49.8828 6.21647 50.2224 6.1934 50.5624 6.1954C50.8722 6.196 51.1817 6.21238 51.4898 6.24442C51.8015 6.27695 52.1111 6.32645 52.4173 6.39272C52.7147 6.45723 53.0079 6.5396 53.2954 6.63937C53.5645 6.73194 53.8253 6.84738 54.0748 6.98439L54.351 5.24824C54.0705 5.10185 53.7764 4.98292 53.473 4.89307C53.1638 4.8012 52.8514 4.72214 52.5356 4.65593C52.2161 4.58989 51.8934 4.54061 51.5688 4.50827C51.2399 4.47538 50.9044 4.45893 50.5624 4.45893C49.8646 4.45135 49.1686 4.53078 48.4905 4.69539C47.913 4.83486 47.3673 5.08275 46.8823 5.42584C46.4355 5.7464 46.076 6.17362 45.8365 6.66864C45.5811 7.22506 45.4562 7.83251 45.4714 8.44457C45.4601 8.91824 45.537 9.38988 45.6983 9.83539C45.8399 10.2089 46.0584 10.5486 46.3397 10.8322C46.6178 11.1099 46.9372 11.3428 47.2865 11.5228C47.657 11.7137 48.0434 11.8723 48.4412 11.9968C48.8555 12.1283 49.2798 12.2401 49.7139 12.3322C50.0691 12.4109 50.398 12.4931 50.7006 12.5789C50.982 12.6564 51.2561 12.7588 51.5195 12.8847C51.7459 12.9916 51.9553 13.1312 52.141 13.2991C52.3173 13.4647 52.4553 13.6667 52.5455 13.8911C52.6501 14.1615 52.7003 14.4498 52.6935 14.7396C52.6987 15.0477 52.652 15.3546 52.5554 15.6473C52.4688 15.9004 52.3349 16.1348 52.1608 16.3379C51.9857 16.538 51.7705 16.6993 51.5293 16.8112C51.2565 16.9368 50.9675 17.0232 50.6706 17.068C50.3084 17.1236 49.9422 17.15 49.5758 17.147C49.2195 17.1461 48.8636 17.123 48.5102 17.0779C48.1419 17.0318 47.7736 16.9693 47.4052 16.8901C47.0422 16.8128 46.6833 16.7173 46.3298 16.604C45.9812 16.4928 45.649 16.3778 45.3333 16.259L45.5898 18.2125C45.9262 18.338 46.2686 18.4466 46.6159 18.5378C46.9312 18.6205 47.2507 18.6864 47.573 18.7351C47.8817 18.7809 48.1908 18.8171 48.5003 18.8436C48.8099 18.8701 49.1223 18.8833 49.4373 18.8831C50.1438 18.8875 50.8485 18.8147 51.5391 18.666C52.1505 18.5378 52.7327 18.297 53.2559 17.9557C53.744 17.6326 54.1388 17.1868 54.4004 16.6632C54.6887 16.0429 54.8273 15.3636 54.8049 14.68C54.8156 14.1707 54.7388 13.6634 54.5779 13.1801C54.4403 12.7822 54.2182 12.4189 53.9268 12.1152Z" fill="#E81502"/>
<path d="M64.7797 9.00728C64.0715 8.57368 63.2516 8.35755 62.4217 8.3857C61.9291 8.38814 61.4387 8.45097 60.9615 8.57282C60.4457 8.70415 59.9485 8.89983 59.4816 9.15526C59.3888 9.20525 59.2967 9.26149 59.2053 9.31773V8.40541L57.1926 8.72116V22.8098H59.2053V18.392C59.2188 18.3976 59.2313 18.4039 59.2448 18.4098C59.6094 18.5611 59.99 18.6704 60.3794 18.7354C60.839 18.8112 61.3043 18.8475 61.7702 18.8439C62.6587 18.8592 63.5348 18.6342 64.3058 18.1924C65.063 17.7437 65.6785 17.0907 66.0817 16.3083C66.5477 15.3754 66.7748 14.3414 66.7427 13.2991C66.7613 12.4177 66.5896 11.5428 66.2392 10.7339C65.9308 10.0288 65.4236 9.42879 64.7797 9.00728ZM64.2568 15.6078C64.0198 16.1318 63.6224 16.5669 63.1221 16.8506C62.566 17.142 61.9441 17.2849 61.3166 17.2653C61.016 17.2655 60.7158 17.2423 60.4188 17.1959C60.1071 17.1463 59.8002 17.0705 59.5012 16.9693C59.4065 16.9364 59.3039 16.899 59.2053 16.8628V10.6355C59.2313 10.6233 59.2582 10.6076 59.2842 10.5957C59.5734 10.4642 59.8431 10.3523 60.0932 10.26C60.3299 10.1715 60.5743 10.1055 60.8233 10.0626C61.0449 10.0245 61.2693 10.0046 61.4942 10.0034C62.1025 9.9832 62.7061 10.1155 63.2501 10.3882C63.7259 10.6472 64.0985 11.0615 64.3058 11.562C64.5567 12.2024 64.6742 12.8873 64.6511 13.5747C64.6721 14.2732 64.5374 14.9677 64.2568 15.6078Z" fill="#E81502"/>
<path d="M76.3626 9.01706C75.5405 8.58015 74.6196 8.36269 73.6889 8.38565C72.7496 8.36411 71.8209 8.58858 70.9951 9.03681C70.2328 9.4634 69.6093 10.1005 69.1994 10.8719C68.7541 11.7373 68.5336 12.7007 68.5581 13.6736C68.533 14.639 68.7394 15.5964 69.16 16.4658C69.538 17.2246 70.141 17.8484 70.8866 18.2519C71.6893 18.6723 72.5853 18.8827 73.4912 18.8633C74.4396 18.8821 75.377 18.658 76.2143 18.2124C76.9962 17.7859 77.6373 17.1414 78.0597 16.3573C78.5178 15.4817 78.7453 14.5039 78.7207 13.5161C78.7431 12.5751 78.5328 11.6431 78.1087 10.8029C77.7155 10.0484 77.108 9.42706 76.3626 9.01706ZM76.244 15.6275C76.0222 16.1402 75.6465 16.5712 75.1688 16.8608C74.6888 17.1355 74.1433 17.2753 73.5902 17.2653C73.0478 17.2788 72.5131 17.1347 72.0508 16.8506C71.5935 16.5468 71.2364 16.1143 71.0247 15.6077C70.7561 14.9578 70.6284 14.2584 70.6498 13.5556C70.6265 12.8716 70.7545 12.191 71.0247 11.5622C71.2461 11.0681 71.6149 10.6545 72.0807 10.3783C72.5784 10.1041 73.1403 9.9679 73.7083 9.98365C74.1518 9.97256 74.5926 10.0567 75.0008 10.2303C75.3584 10.3918 75.6704 10.6393 75.9088 10.9508C76.1631 11.2893 76.3474 11.675 76.4511 12.0855C76.5744 12.5656 76.6341 13.0599 76.6287 13.5556C76.6517 14.2659 76.5207 14.9728 76.244 15.6275Z" fill="#E81502"/>
<path d="M85.291 8.53333C84.922 8.63252 84.5696 8.78545 84.2451 8.98718C83.9086 9.19745 83.5975 9.44574 83.3178 9.72715C83.2711 9.77385 83.226 9.8258 83.1796 9.8748V8.40539L81.1669 8.70138V18.6663H83.1796V11.2113C83.3291 11.1068 83.4839 11.01 83.6433 10.9213C83.8407 10.8123 84.0451 10.7167 84.2553 10.6352C84.459 10.5562 84.6661 10.4872 84.8766 10.428C85.0932 10.3676 85.3143 10.3246 85.5377 10.2994C85.7768 10.2731 86.0177 10.2666 86.2579 10.28L86.4947 8.42482C86.0902 8.39605 85.6838 8.43269 85.291 8.53333Z" fill="#E81502"/>
<path d="M93.8549 17.0187C93.7625 17.0384 93.6605 17.0578 93.5487 17.0779L93.2136 17.1367C93.1059 17.1562 92.9972 17.1695 92.888 17.1765C92.7823 17.1831 92.6837 17.1864 92.592 17.1864C92.2897 17.1945 91.9894 17.1337 91.7139 17.0088C91.4772 16.8964 91.2808 16.7138 91.1515 16.4859C91.0133 16.2284 90.9453 15.9391 90.9543 15.6469V10.1814H93.7365L93.9536 8.60274H90.9543V5.48533L88.9415 6.19571V8.60274H87.4221L87.2047 10.1814H88.9415V16.0616C88.9325 16.4539 88.9927 16.8446 89.1191 17.216C89.2207 17.5097 89.3781 17.781 89.5828 18.0148C89.7704 18.2234 89.9987 18.3913 90.2537 18.5081C90.5145 18.6282 90.7896 18.7146 91.0723 18.765C91.3522 18.8166 91.6362 18.843 91.9208 18.8439C92.1313 18.8439 92.3385 18.8373 92.5427 18.8239C92.7468 18.8105 92.9343 18.7909 93.1051 18.765C93.2758 18.7383 93.4373 18.7087 93.5886 18.6759C93.7398 18.643 93.8677 18.6141 93.973 18.5874L94.0917 16.9493C94.0149 16.979 93.9356 17.0023 93.8549 17.0187Z" fill="#E81502"/>
</svg>

<svg xmlns="http://www.w3.org/2000/svg" viewBox="0 0 95 24"><path fill="#0A2343" d="M0 18.667v-14h4.593v14H0ZM10.843 6.896l2.641 11.77H8.457L5.303 4.669h2.82a2.655 2.655 0 0 1 1.764.64c.491.404.829.965.956 1.588Zm3.331 11.77V4.669h4.594v13.999h-4.594Zm8.063-8.675a2.737 2.737 0 0 1-1.409-.374A2.778 2.778 0 0 1 19.813 8.6a2.735 2.735 0 0 1-.375-1.41 2.685 2.685 0 0 1 .375-1.4 2.812 2.812 0 0 1 3.824-1.005c.415.245.761.59 1.005 1.006.251.423.38.908.375 1.4.005.495-.125.982-.375 1.41a2.8 2.8 0 0 1-1.005 1.015c-.424.25-.908.38-1.4.374Zm3.49 8.676v-14h4.594v14h-4.594Zm10.409-6.35c.013.014.111.175.296.484.184.308.424.703.72 1.183a384.573 384.573 0 0 1 1.862 3.056c.289.48.617 1.022.986 1.627h-5.047l-.858-1.39c-.256-.414-.529-.861-.817-1.341-.29-.48-.576-.946-.858-1.4a71.148 71.148 0 0 1-.73-1.193 21.119 21.119 0 0 0-.424-.69 2.04 2.04 0 0 1-.334-.986c.019-.338.128-.664.315-.946.078-.132.223-.365.433-.7a216.7 216.7 0 0 0 1.598-2.603l.817-1.35.858-1.4H40l-3.904 6.368c-.12.19-.189.407-.197.631.013.236.095.462.236.65h.001Z"/><path fill="#E81502" d="M53.927 12.115a3.737 3.737 0 0 0-.987-.72 7.682 7.682 0 0 0-1.194-.483 13.521 13.521 0 0 0-1.302-.336 28.269 28.269 0 0 1-.957-.237 4.411 4.411 0 0 1-.79-.286 2.607 2.607 0 0 1-.6-.395 1.42 1.42 0 0 1-.386-.552 2.134 2.134 0 0 1-.128-.78 2.38 2.38 0 0 1 .128-.809c.081-.23.217-.436.395-.602a2.44 2.44 0 0 1 .621-.414c.26-.118.536-.198.82-.237a6.912 6.912 0 0 1 1.015-.069c.31.001.62.017.928.05.311.032.621.081.927.148.298.064.59.147.878.246.27.093.53.208.78.345l.276-1.736a4.913 4.913 0 0 0-.878-.355c-.31-.092-.622-.17-.937-.237a9.36 9.36 0 0 0-.967-.148 10.11 10.11 0 0 0-1.007-.05 8.396 8.396 0 0 0-2.072.237 4.692 4.692 0 0 0-1.608.73c-.447.321-.806.749-1.045 1.244a4.018 4.018 0 0 0-.366 1.776c-.01.473.066.945.227 1.39.142.374.36.714.642.997.278.278.597.51.946.69.371.192.757.35 1.155.475.414.131.839.243 1.273.335.355.079.684.161.987.247.281.077.555.18.819.306.226.107.435.246.621.414.176.166.314.368.404.592.105.27.155.559.148.849.006.308-.041.615-.138.907-.086.253-.22.488-.394.69-.175.201-.39.362-.632.474a3.192 3.192 0 0 1-.858.257 6.847 6.847 0 0 1-1.095.079 8.59 8.59 0 0 1-1.066-.07 12.845 12.845 0 0 1-1.105-.187 11.094 11.094 0 0 1-1.075-.286 20.65 20.65 0 0 1-.997-.345l.257 1.953c.336.126.679.235 1.026.326.315.082.635.148.957.197.309.046.618.082.927.109.31.026.622.04.937.04a9.698 9.698 0 0 0 2.102-.218 5.032 5.032 0 0 0 1.717-.71 3.341 3.341 0 0 0 1.144-1.293c.289-.62.427-1.3.405-1.983a4.452 4.452 0 0 0-.227-1.5 2.913 2.913 0 0 0-.651-1.065ZM64.78 9.007a4.24 4.24 0 0 0-2.358-.621 6.023 6.023 0 0 0-1.46.187 6.346 6.346 0 0 0-1.757.745v-.913l-2.012.316V22.81h2.012v-4.418l.04.018c.364.151.745.26 1.134.325.46.076.925.113 1.391.109a4.93 4.93 0 0 0 2.536-.652 4.684 4.684 0 0 0 1.776-1.884 6.3 6.3 0 0 0 .66-3.009 6.128 6.128 0 0 0-.503-2.565 3.96 3.96 0 0 0-1.46-1.727Zm-.523 6.6c-.237.525-.635.96-1.135 1.244a3.645 3.645 0 0 1-1.805.414 5.614 5.614 0 0 1-1.815-.296l-.297-.106v-6.227c.026-.013.053-.028.08-.04.288-.132.558-.244.808-.336a4.046 4.046 0 0 1 1.401-.257 3.648 3.648 0 0 1 1.756.385c.476.26.849.674 1.056 1.174.25.64.368 1.325.345 2.013a4.711 4.711 0 0 1-.394 2.033ZM76.363 9.017a5.413 5.413 0 0 0-2.674-.631 5.388 5.388 0 0 0-2.694.65 4.55 4.55 0 0 0-1.796 1.836 5.804 5.804 0 0 0-.64 2.802 6.05 6.05 0 0 0 .601 2.792 4.12 4.12 0 0 0 1.727 1.786c.802.42 1.698.63 2.604.611a5.562 5.562 0 0 0 2.723-.65 4.596 4.596 0 0 0 1.846-1.856 5.817 5.817 0 0 0 .66-2.84 5.72 5.72 0 0 0-.611-2.714 4.313 4.313 0 0 0-1.746-1.786Zm-.119 6.61a2.692 2.692 0 0 1-1.075 1.234 3.067 3.067 0 0 1-1.579.404 2.807 2.807 0 0 1-1.54-.414 2.778 2.778 0 0 1-1.025-1.243 4.976 4.976 0 0 1-.375-2.052 4.648 4.648 0 0 1 .375-1.994c.221-.494.59-.907 1.056-1.184a3.19 3.19 0 0 1 1.627-.394c.444-.011.885.073 1.293.246.357.162.67.41.908.72.254.34.438.725.542 1.136.123.48.183.974.178 1.47a4.913 4.913 0 0 1-.385 2.072ZM85.291 8.533c-.369.1-.721.252-1.046.454a5.17 5.17 0 0 0-.927.74c-.047.047-.092.099-.138.148v-1.47l-2.013.296v9.965h2.013v-7.455a5.021 5.021 0 0 1 1.076-.576c.203-.079.41-.148.62-.207a4.224 4.224 0 0 1 1.382-.148l.237-1.855a3.771 3.771 0 0 0-1.204.108ZM93.855 17.019c-.093.02-.195.039-.306.059l-.335.059c-.108.02-.217.032-.326.04-.106.006-.204.01-.296.01a1.997 1.997 0 0 1-.878-.178 1.276 1.276 0 0 1-.563-.523 1.666 1.666 0 0 1-.197-.84v-5.465h2.783l.217-1.578h-3V5.485l-2.012.71v2.408h-1.52l-.217 1.578h1.737v5.88c-.01.393.05.784.177 1.155.102.294.26.565.464.799.187.208.416.376.67.493.261.12.537.207.82.257.28.052.563.078.848.079.21 0 .417-.007.622-.02a6.694 6.694 0 0 0 1.046-.148c.15-.033.279-.062.384-.089l.119-1.638c-.077.03-.156.053-.237.07Z"/></svg>
